public/static/illustrations/illustration_empty_cart.svg

<svg height="240" viewBox="0 0 327 240" width="327" xmlns="http://www.w3.org/2000/svg" xmlns:xlink="http://www.w3.org/1999/xlink"><linearGradient id="a" x1="19.495903%" x2="77.479035%" y1="70.897978%" y2="18.101149%"><stop offset="0" stop-color="#919eab"/><stop offset="1" stop-color="#919eab" stop-opacity="0"/></linearGradient><filter id="b" height="193.3%" width="190.3%" x="-45.2%" y="-46.7%"><feOffset dx="12" dy="12" in="SourceAlpha" result="shadowOffsetOuter1"/><feGaussianBlur in="shadowOffsetOuter1" result="shadowBlurOuter1" stdDeviation="12"/><feColorMatrix in="shadowBlurOuter1" result="shadowMatrixOuter1" type="matrix" values="0 0 0 0 0.270588235   0 0 0 0 0.309803922   0 0 0 0 0.356862745  0 0 0 0.24 0"/><feMerge><feMergeNode in="shadowMatrixOuter1"/><feMergeNode in="SourceGraphic"/></feMerge></filter><g fill="none" fill-rule="evenodd"><path d="m0 132.520479c0 27.638106 10.1815403 52.823212 26.9359737 71.857174 19.2210583 21.843031 47.0935619 35.576174 78.1622963 35.622347 13.578251.01963 26.561505-2.591298 38.487224-7.357648 6.166205-2.465429 13.067742-2.182475 19.03991.738459 7.005358 3.42177 14.84987 5.340301 23.13329 5.340301 3.421771 0 6.772658-.329748 10.013996-.95561 9.252171-1.780344 17.671632-5.993216 24.586057-11.96011 4.345413-3.751518 9.910892-5.637147 15.598807-5.630567h.096661c18.795037 0 36.2533-5.821396 50.748033-15.797172 12.958194-8.906839 23.539979-21.130893 30.590445-35.483318 6.146872-12.507009 9.607307-26.635702 9.607307-41.589131 0-51.2870702-40.721149-92.8696204-90.945785-92.8696204-5.120127 0-10.136433.4416131-15.030302 1.2656163-12.958194-21.4211586-36.163084-35.7011999-62.634373-35.7011999-11.176066 0-21.771456 2.54512435-31.255611 7.10748458-9.019469 4.32473732-17.038685 10.47003182-23.598691 17.95917532-22.274804.3626492-42.871301 7.7933009-59.7288387 20.1942932-26.5357289 19.509208-43.8063993 51.3272837-43.8063993 87.2595259z" fill="url(#a)" opacity=".2"/><g fill-rule="nonzero" transform="translate(51 12)"><path d="m139.604706 17.0504412c-2.184706 0-4.368824-.8311765-6.031177-2.4941177-3.325882-3.3258823-3.325882-8.73705877 0-12.06235289 3.324118-3.32470589 8.736471-3.32588236 12.061765 0 3.325882 3.32588235 3.325882 8.73705879 0 12.06235289-1.662353 1.6629412-3.84647 2.4941177-6.030588 2.4941177zm0-11.17117647c-.677647 0-1.355882.25764705-1.872353.77411764-1.031765 1.03176471-1.031765 2.71117647 0 3.74352943 1.032941 1.0317647 2.710588 1.0323529 3.743529 0 1.031765-1.03176472 1.031765-2.71117649 0-3.74352943-.515882-.51588235-1.194117-.77411764-1.871176-.77411764z" fill="#c4cdd5" opacity=".545118"/><path d="m72.5517647 216.193971c-2.1841176 0-4.3688235-.831765-6.0311765-2.494118-3.3258823-3.325882-3.3258823-8.737059 0-12.062353 3.3247059-3.325294 8.7376471-3.325294 12.062353 0 3.3258823 3.325882 3.3258823 8.737059 0 12.062353-1.662353 1.662941-3.8470588 2.494118-6.0311765 2.494118zm0-11.171177c-.6776471 0-1.3558823.257647-1.8723529.774118-1.0317647 1.031764-1.0317647 2.711176 0 3.743529 1.0329411 1.032353 2.7111764 1.032353 3.7441176 0 1.0317647-1.031765 1.0317647-2.711176 0-3.743529-.5158823-.515883-1.1941176-.774118-1.8717647-.774118z" fill="#c4cdd5" opacity=".545118"/><path d="m221.674118 176.021618c-.752353 0-1.505883-.287059-2.079412-.861177l-3.508824-3.508235-3.508823 3.508235c-1.147647 1.148235-3.011177 1.148235-4.158824 0-1.148823-1.148823-1.148823-3.011176 0-4.159412l5.588236-5.588235c1.147647-1.148235 3.011176-1.148235 4.158823 0l5.588235 5.588235c1.148824 1.148824 1.148824 3.011177 0 4.159412-.573529.57353-1.327058.861177-2.079411.861177z" fill="#dfe3e8"/><path d="m14.2258824 164.815735c-.752353 0-1.5058824-.287059-2.0794118-.861176l-3.50882354-3.508235-3.50882353 3.508235c-1.14764706 1.148235-3.01117647 1.148235-4.15882353 0-1.14882353-1.148824-1.14882353-3.011177 0-4.159412l5.58823529-5.588235c1.14764706-1.148236 3.01117647-1.148236 4.15882351 0l5.5882353 5.588235c1.1488235 1.148824 1.1488235 3.011177 0 4.159412-.5741176.573529-1.3270588.861176-2.0794117.861176z" fill="#d5dbe0"/></g><g filter="url(#b)" transform="translate(86 45)"><g stroke="#919eab"><path d="m46.054386 29.1899561h80.805877c2.906762 0 5.263158 2.3563961 5.263158 5.2631579v89.308728c0 2.906762-2.356396 5.263158-5.263158 5.263158h-80.805877c-2.9067619 0-5.2631579-2.356396-5.2631579-5.263158v-89.308728c0-2.9067618 2.356396-5.2631579 5.2631579-5.2631579z" style="stroke-width:1.2;fill-opacity:.16;fill:#919eab;fill-rule:nonzero;opacity:.24;stroke-dasharray:2 2"/><path d="m28.3275 44.2101754h64.3432895c2.9067618 0 5.2631579 2.3563961 5.2631579 5.2631579v83.4591227c0 2.906762-2.3563961 5.263158-5.2631579 5.263158h-64.3432895c-2.9067618 0-5.2631579-2.356396-5.2631579-5.263158v-83.4591227c0-2.9067618 2.3563961-5.2631579 5.2631579-5.2631579z" style="stroke-width:1.2;fill-opacity:.16;fill:#919eab;fill-rule:nonzero;opacity:.8;stroke-dasharray:2 2"/><path d="m62.2053509 60.8597368h53.5522371c2.906762 0 5.263158 2.3563961 5.263158 5.2631579v69.7121053c0 2.906762-2.356396 5.263158-5.263158 5.263158h-53.5522371c-2.9067619 0-5.2631579-2.356396-5.2631579-5.263158v-69.7121053c0-2.9067618 2.356396-5.2631579 5.2631579-5.2631579z" fill="#919eab" fill-opacity=".48" fill-rule="nonzero" stroke-dasharray="2 2" stroke-width="1.2"/></g><path d="m34.17864 96.361316h86.842105v44.736842h-86.842105z" fill="#c4cdd5"/><g fill="#dfe3e8" stroke="#919eab" stroke-opacity=".48" stroke-width="1.5"><path d="m9.61114035 88.0065351 14.48600875 54.9257459c.8903509 3.694956 4.8613158 6.348201 9.4555263 6.348201h87.8420176c4.594211 0 8.547368-2.671052 9.455526-6.348201l14.486009-54.9257459zm38.48096495 46.2003069c0 2.199167-2.2971053 3.988772-5.1195176 3.988772s-5.1017105-1.780702-5.1017105-3.988772v-31.705395c0-2.199166 2.2792982-3.9887716 5.1017105-3.9887716 1.3008345-.0220962 2.5722233.3881302 3.6148246 1.1663597.9195782.6500029 1.4775582 1.6966279 1.504693 2.8224119zm23.0066666 0c0 2.199167-2.2792982 3.988772-5.1017105 3.988772s-5.110614-1.780702-5.110614-3.988772v-31.705395c0-2.199166 2.2882017-3.9889387 5.110614-3.9889387 1.2825116-.0094954 2.5330731.4000635 3.5614035 1.1665268.9162069.6519109 1.4707214 1.6982269 1.4957895 2.8224119zm23.0155702 0c0 2.199167-2.2882017 3.988772-5.110614 3.988772s-5.1017106-1.780702-5.1017106-3.988772v-31.705395c0-2.199166 2.2792983-3.9887716 5.1017106-3.9887716 1.3006341-.0207507 2.5715994.3893391 3.6148245 1.1663597.9162069.6519109 1.4707214 1.6982269 1.4957895 2.8224119zm23.0155699 0c0 2.199167-2.279298 3.988772-5.10171 3.988772-2.822413 0-5.119518-1.780702-5.119518-3.988772v-31.705395c0-2.199166 2.297105-3.9887716 5.119518-3.9887716 1.297699-.019449 2.565434.3906084 3.605921 1.1663597.916207.6519109 1.470721 1.6982269 1.495789 2.8224119z"/><circle cx="68.579079" cy="8.605044" r="8.289167"/><path d="m27.6140351 82.370614c-1.7118589.7625036-3.7205255.3260579-4.9616166-1.0780666-1.2410912-1.4041244-1.4275692-3.4511838-.4606203-5.0564509l42.9594299-70.19526317c.7952293-1.31053793 2.2292152-2.09727512 3.761789-2.06385529s2.9309011.88191943 3.6682456 2.22587719c.7373445 1.34395777.7016859 2.97919456-.0935434 4.28973247l-42.9505263 70.1952632c-.4539828.7443076-1.1251739 1.3315998-1.9231579 1.6827631z"/><circle cx="86.36829" cy="8.605044" r="8.289167"/><path d="m127.377851 82.370614c1.711859.7625036 3.720525.3260579 4.961617-1.0780666 1.241091-1.4041244 1.427569-3.4511838.46062-5.0564509l-42.9594301-70.19526317c-1.229318-2.02591611-3.8682067-2.67168645-5.8941228-1.44236842s-2.6716865 3.8682067-1.4423684 5.89412279l42.9505263 70.1952632c.453983.7443076 1.125174 1.3315998 1.923158 1.6827631z"/><rect height="15.091447" rx="7.545724" width="154.075219" x=".431623" y="72.915088"/></g></g></g></svg>

<?xml version="1.0" encoding="UTF-8"?>
<svg width="327px" height="240px" viewBox="0 0 327 240" version="1.1" xmlns="http://www.w3.org/2000/svg" xmlns:xlink="http://www.w3.org/1999/xlink">
    <title>__🥭Illustrations/ illustration_empty_cart</title>
    <defs>
        <linearGradient x1="19.4959033%" y1="70.8979779%" x2="77.4790349%" y2="18.1011488%" id="linearGradient-1">
            <stop stop-color="#919EAB" offset="0%"></stop>
            <stop stop-color="#919EAB" stop-opacity="0" offset="100%"></stop>
        </linearGradient>
        <filter x="-45.2%" y="-46.7%" width="190.3%" height="193.3%" filterUnits="objectBoundingBox" id="filter-2">
            <feOffset dx="12" dy="12" in="SourceAlpha" result="shadowOffsetOuter1"></feOffset>
            <feGaussianBlur stdDeviation="12" in="shadowOffsetOuter1" result="shadowBlurOuter1"></feGaussianBlur>
            <feColorMatrix values="0 0 0 0 0.270588235   0 0 0 0 0.309803922   0 0 0 0 0.356862745  0 0 0 0.24 0" type="matrix" in="shadowBlurOuter1" result="shadowMatrixOuter1"></feColorMatrix>
            <feMerge>
                <feMergeNode in="shadowMatrixOuter1"></feMergeNode>
                <feMergeNode in="SourceGraphic"></feMergeNode>
            </feMerge>
        </filter>
    </defs>
    <g id="__🥭Illustrations/-illustration_empty_cart" stroke="none" stroke-width="1" fill="none" fill-rule="evenodd">
        <g id="Group" fill="url(#linearGradient-1)" opacity="0.2">
            <g id="__🥭Illustrations/-X🩸Setup/-Shape_2">
                <path d="M2.84217094e-14,132.520479 C2.84217094e-14,160.158585 10.1815403,185.343691 26.9359737,204.377653 C46.157032,226.220684 74.0295356,239.953827 105.09827,240 C118.676521,240.01963 131.659775,237.408702 143.585494,232.642352 C149.751699,230.176923 156.653236,230.459877 162.625404,233.380811 C169.630762,236.802581 177.475274,238.721112 185.758694,238.721112 C189.180465,238.721112 192.531352,238.391364 195.77269,237.765502 C205.024861,235.985158 213.444322,231.772286 220.358747,225.805392 C224.70416,222.053874 230.269639,220.168245 235.957554,220.174825 L236.054215,220.174825 C254.849252,220.174825 272.307515,214.353429 286.802248,204.377653 C299.760442,195.470814 310.342227,183.24676 317.392693,168.894335 C323.539565,156.387326 327,142.258633 327,127.305204 C327,76.0181338 286.278851,34.4355836 236.054215,34.4355836 C230.934088,34.4355836 225.917782,34.8771967 221.023913,35.7011999 C208.065719,14.2800413 184.860829,0 158.38954,0 C147.213474,0 136.618084,2.54512435 127.133929,7.10748458 C118.11446,11.4322219 110.095244,17.5775164 103.535238,25.0666599 C81.260434,25.4293091 60.663937,32.8599608 43.8063993,45.2609531 C17.2706704,64.7701611 2.84217094e-14,96.5882368 2.84217094e-14,132.520479 Z" id="background"></path>
            </g>
        </g>
        <g id="#gr" transform="translate(51.000000, 12.000000)" fill-rule="nonzero">
            <path d="M139.604706,17.0504412 C137.42,17.0504412 135.235882,16.2192647 133.573529,14.5563235 C130.247647,11.2304412 130.247647,5.81926473 133.573529,2.49397061 C136.897647,-0.830735275 142.31,-0.831911745 145.635294,2.49397061 C148.961176,5.81985296 148.961176,11.2310294 145.635294,14.5563235 C143.972941,16.2192647 141.788824,17.0504412 139.604706,17.0504412 Z M139.604706,5.87926473 C138.927059,5.87926473 138.248824,6.13691178 137.732353,6.65338237 C136.700588,7.68514708 136.700588,9.36455884 137.732353,10.3969118 C138.765294,11.4286765 140.442941,11.4292647 141.475882,10.3969118 C142.507647,9.36514708 142.507647,7.68573531 141.475882,6.65338237 C140.96,6.13750002 140.281765,5.87926473 139.604706,5.87926473 L139.604706,5.87926473 Z" id="Shape" fill="#C4CDD5" opacity="0.545118059"></path>
            <path d="M72.5517647,216.193971 C70.3676471,216.193971 68.1829412,215.362206 66.5205882,213.699853 C63.1947059,210.373971 63.1947059,204.962794 66.5205882,201.6375 C69.8452941,198.312206 75.2582353,198.312206 78.5829412,201.6375 C81.9088235,204.963382 81.9088235,210.374559 78.5829412,213.699853 C76.9205882,215.362794 74.7358824,216.193971 72.5517647,216.193971 L72.5517647,216.193971 Z M72.5517647,205.022794 C71.8741176,205.022794 71.1958824,205.280441 70.6794118,205.796912 C69.6476471,206.828676 69.6476471,208.508088 70.6794118,209.540441 C71.7123529,210.572794 73.3905882,210.572794 74.4235294,209.540441 C75.4552941,208.508676 75.4552941,206.829265 74.4235294,205.796912 C73.9076471,205.281029 73.2294118,205.022794 72.5517647,205.022794 L72.5517647,205.022794 Z" id="Shape" fill="#C4CDD5" opacity="0.545118059"></path>
            <path d="M221.674118,176.021618 C220.921765,176.021618 220.168235,175.734559 219.594706,175.160441 L216.085882,171.652206 L212.577059,175.160441 C211.429412,176.308676 209.565882,176.308676 208.418235,175.160441 C207.269412,174.011618 207.269412,172.149265 208.418235,171.001029 L214.006471,165.412794 C215.154118,164.264559 217.017647,164.264559 218.165294,165.412794 L223.753529,171.001029 C224.902353,172.149853 224.902353,174.012206 223.753529,175.160441 C223.18,175.733971 222.426471,176.021618 221.674118,176.021618 Z" id="Path" fill="#DFE3E8"></path>
            <path d="M14.2258824,164.815735 C13.4735294,164.815735 12.72,164.528676 12.1464706,163.954559 L8.63764706,160.446324 L5.12882353,163.954559 C3.98117647,165.102794 2.11764706,165.102794 0.97,163.954559 C-0.178823529,162.805735 -0.178823529,160.943382 0.97,159.795147 L6.55823529,154.206912 C7.70588235,153.058676 9.56941176,153.058676 10.7170588,154.206912 L16.3052941,159.795147 C17.4541176,160.943971 17.4541176,162.806324 16.3052941,163.954559 C15.7311765,164.528088 14.9782353,164.815735 14.2258824,164.815735 Z" id="Path" fill="#D5DBE0"></path>
        </g>
        <g id="#gr" filter="url(#filter-2)" transform="translate(86.000000, 45.000000)">
            <g id="Shopping-cart_Outline-(1)">
                <path d="M46.054386,29.1899561 L126.860263,29.1899561 C129.767025,29.1899561 132.123421,31.5463522 132.123421,34.453114 L132.123421,123.761842 C132.123421,126.668604 129.767025,129.025 126.860263,129.025 L46.054386,129.025 C43.1476241,129.025 40.7912281,126.668604 40.7912281,123.761842 L40.7912281,34.453114 C40.7912281,31.5463522 43.1476241,29.1899561 46.054386,29.1899561 Z" id="Rectangle" stroke="#919EAB" stroke-width="1.2" fill-opacity="0.16" fill="#919EAB" fill-rule="nonzero" opacity="0.24" stroke-dasharray="2,2"></path>
                <path d="M28.3275,44.2101754 L92.6707895,44.2101754 C95.5775513,44.2101754 97.9339474,46.5665715 97.9339474,49.4733333 L97.9339474,132.932456 C97.9339474,135.839218 95.5775513,138.195614 92.6707895,138.195614 L28.3275,138.195614 C25.4207382,138.195614 23.0643421,135.839218 23.0643421,132.932456 L23.0643421,49.4733333 C23.0643421,46.5665715 25.4207382,44.2101754 28.3275,44.2101754 Z" id="Rectangle" stroke="#919EAB" stroke-width="1.2" fill-opacity="0.16" fill="#919EAB" fill-rule="nonzero" opacity="0.8" stroke-dasharray="2,2"></path>
                <path d="M62.2053509,60.8597368 L115.757588,60.8597368 C118.66435,60.8597368 121.020746,63.2161329 121.020746,66.1228947 L121.020746,135.835 C121.020746,138.741762 118.66435,141.098158 115.757588,141.098158 L62.2053509,141.098158 C59.298589,141.098158 56.942193,138.741762 56.942193,135.835 L56.942193,66.1228947 C56.942193,63.2161329 59.298589,60.8597368 62.2053509,60.8597368 Z" id="Rectangle" stroke="#919EAB" stroke-width="1.2" fill-opacity="0.48" fill="#919EAB" fill-rule="nonzero" stroke-dasharray="2,2"></path>
                <rect id="Rectangle" fill="#C4CDD5" x="34.1786404" y="96.3613158" width="86.8421053" height="44.7368421"></rect>
                <path d="M9.61114035,88.0065351 L24.0971491,142.932281 C24.9875,146.627237 28.9584649,149.280482 33.5526754,149.280482 L121.394693,149.280482 C125.988904,149.280482 129.942061,146.60943 130.850219,142.932281 L145.336228,88.0065351 L9.61114035,88.0065351 Z M48.0921053,134.206842 C48.0921053,136.406009 45.795,138.195614 42.9725877,138.195614 C40.1501754,138.195614 37.8708772,136.414912 37.8708772,134.206842 L37.8708772,102.501447 C37.8708772,100.302281 40.1501754,98.5126754 42.9725877,98.5126754 C44.2734222,98.4905792 45.544811,98.9008056 46.5874123,99.6790351 C47.5069905,100.329038 48.0649705,101.375663 48.0921053,102.501447 L48.0921053,134.206842 Z M71.0987719,134.206842 C71.0987719,136.406009 68.8194737,138.195614 65.9970614,138.195614 C63.1746491,138.195614 60.8864474,136.414912 60.8864474,134.206842 L60.8864474,102.501447 C60.8864474,100.302281 63.1746491,98.5125083 65.9970614,98.5125083 C67.279573,98.5030129 68.5301345,98.9125718 69.5584649,99.6790351 C70.4746718,100.330946 71.0291863,101.377262 71.0542544,102.501447 L71.0987719,134.206842 Z M94.1143421,134.206842 C94.1143421,136.406009 91.8261404,138.195614 89.0037281,138.195614 C86.1813158,138.195614 83.9020175,136.414912 83.9020175,134.206842 L83.9020175,102.501447 C83.9020175,100.302281 86.1813158,98.5126754 89.0037281,98.5126754 C90.3043622,98.4919247 91.5753275,98.9020145 92.6185526,99.6790351 C93.5347595,100.330946 94.089274,101.377262 94.1143421,102.501447 L94.1143421,134.206842 Z M117.129912,134.206842 C117.129912,136.406009 114.850614,138.195614 112.028202,138.195614 C109.205789,138.195614 106.908684,136.414912 106.908684,134.206842 L106.908684,102.501447 C106.908684,100.302281 109.205789,98.5126754 112.028202,98.5126754 C113.325901,98.4932264 114.593636,98.9032838 115.634123,99.6790351 C116.55033,100.330946 117.104844,101.377262 117.129912,102.501447 L117.129912,134.206842 Z" id="Shape" stroke-opacity="0.48" stroke="#919EAB" stroke-width="1.5" fill="#DFE3E8"></path>
                <circle id="Oval" stroke-opacity="0.48" stroke="#919EAB" stroke-width="1.5" fill="#DFE3E8" cx="68.5790789" cy="8.60504386" r="8.28916667"></circle>
                <path d="M27.6140351,82.370614 C25.9021762,83.1331176 23.8935096,82.6966719 22.6524185,81.2925474 C21.4113273,79.888423 21.2248493,77.8413636 22.1917982,76.2360965 L65.1512281,6.04083333 C65.9464574,4.7302954 67.3804433,3.94355821 68.9130171,3.97697804 C70.4455909,4.01039787 71.8439182,4.85889747 72.5812627,6.20285523 C73.3186072,7.546813 73.2829486,9.18204979 72.4877193,10.4925877 L29.537193,80.6878509 C29.0832102,81.4321585 28.4120191,82.0194507 27.6140351,82.370614 L27.6140351,82.370614 Z" id="Path" stroke-opacity="0.48" stroke="#919EAB" stroke-width="1.5" fill="#DFE3E8"></path>
                <circle id="Oval" stroke-opacity="0.48" stroke="#919EAB" stroke-width="1.5" fill="#DFE3E8" cx="86.3682895" cy="8.60504386" r="8.28916667"></circle>
                <path d="M127.377851,82.370614 C129.08971,83.1331176 131.098376,82.6966719 132.339468,81.2925474 C133.580559,79.888423 133.767037,77.8413636 132.800088,76.2360965 L89.8406579,6.04083333 C88.6113399,4.01491722 85.9724512,3.36914688 83.9465351,4.59846491 C81.920619,5.82778294 81.2748486,8.46667161 82.5041667,10.4925877 L125.454693,80.6878509 C125.908676,81.4321585 126.579867,82.0194507 127.377851,82.370614 L127.377851,82.370614 Z" id="Path" stroke-opacity="0.48" stroke="#919EAB" stroke-width="1.5" fill="#DFE3E8"></path>
                <rect id="Rectangle" stroke-opacity="0.48" stroke="#919EAB" stroke-width="1.5" fill="#DFE3E8" x="0.431622807" y="72.9150877" width="154.075219" height="15.0914474" rx="7.54572368"></rect>
            </g>
        </g>
    </g>
</svg>
